X:1
T:Title
%%score { ( 1 4 ) | ( 2 3 ) }
L:1/8
M:4/4
K:F
V:1 treble nm="Grand Piano"
V:4 treble 
V:2 bass 
V:3 bass 
V:1
 z4 z2[Q:1/4=100] C>F | A2 A>A A2 A>A | A>B c4 c>c | [Ec]2 [EG]>[FA] [GB]2 [FA]>[EG] | A6 C>F | %5
 A2 A>A A2 A2 | A>B c4 c2 | [Ec]2 [EG]>[FA] [GB]2 [FA]>[EG] | z4 z2 F2 | %9
 [Dd]2 [Fd]>[Fd] [FB]2 [Fd]2 | c2 A4 c>c | [Ec]2 [EG]>[FA] [GB]2 [FA]>[EG] | A6 z z/ E/ | %13
 [Dd]2 [Fd]>[Fd] [Fe]2 [Fd]>[Fd] | [Fc]2 [CFA]4 F->[DFG] | [CFA]2 [CFA]>[DFB] [CFA]2 [B,EG]>[A,F] | %16
[M:3/4] [A,F]6 |] %17
V:2
 z4 z2 [F,A,]>[F,A,C] | [F,CF]2 [F,CF]>[F,CF] [F,CF]2 [F,CF]>[F,CF] | [F,F]2 z2 z2 [F,F]2 | %3
 [C,G,]2 [C,C]>[C,C] [C,C]2 [C,C]>[C,C] | [F,CF]6 [F,A,]>[F,A,C] | %5
 [F,CF]2 [F,CF]>[F,CF] [F,CF]2 [F,CF]2 | [F,F]2 z2 z4 | [C,G,]2 [C,C]>[C,C] [C,C]2 [C,C]>[C,B,] | %8
 [F,A,]6 [F,A,]2 | [B,,B,]2 [B,,B,]>[B,,B,] [D,B,]2 [B,,B,]2 | z4 z2 [F,F]2 | %11
 [C,G,]2 [C,C]>[C,C] [C,C]2 [C,C]>[C,C] | [F,CF]6 [F,A,]2 | %13
 [B,,B,]2 [B,,B,]>[B,,B,] [B,,C]2 [B,,B,]>[D,B,] | [F,A,]2 F,4 A,,>B,, | C,2 C,>C, C,2 C,>F, | %16
[M:3/4] F,6 |] %17
V:3
 x8 | x8 | z z/ G,/ [F,A,F]4 A,>A, | x8 | x8 | x8 | z z/ G,/ [F,A,F]4 [F,A,F]2 | x8 | x8 | x8 | %10
 [F,A,F]2 [F,CF]4 A,>A, | x8 | x8 | x8 | x8 | x8 |[M:3/4] x6 |] %17
V:4
 x8 | x8 | x8 | x8 | x8 | x8 | x8 | x8 | F6 z z/ _E/ | x8 | x8 | x8 | z4 z2 F2 | x8 | z4 z2 C2 | %15
 x8 |[M:3/4] x6 |] %17

